X:8
T:Hamilton's
T:Seconds
R:Reel
L:1/8
C:Terry Tully
M:C|
L:1/8
Q:"76 bpm"
K:D
{g}ce{A}ec {g}A2 {g}ec | {g}Ae{g}c{d}A {g}fe{A}ef | {g}cd{g}dc {g}B{G}B{g}fe | {g}ef{g}fe {g}ef{g}dB |
{g}ce{A}ec {g}A2 {g}ec | {g}Ae{g}c{d}A {g}fe{A}ef | {g}cd{g}dc {g}B{G}B{g}fe | {g}ef{g}dB {G}A4 |
ae{A}ea Bc{g}c{G}c | ae{A}ea Bc{g}ec | af{e}fa cd{g}d{G}d | {g}fa{g}af {g}ef{g}dB |
ae{A}ea Bc{g}c{G}c | ae{A}ef {ag}(a4 | (a8) | a8) |
cd{g}dc {g}B{G}B{g}fe | {g}ef{g}dB {G}(A4 | A4) z4 |]

